src/assets/filled/MessageSearch.svg

<?xml version="1.0" encoding="UTF-8"?>
<svg width="24" height="24" viewBox="0 0 24 24" xmlns="http://www.w3.org/2000/svg">
 <path d="m17 2h-10c-2.76 0-5 2.23-5 4.98v6.98c0 2.75 2.24 4.98 5 4.98h1.5c0.27 0 0.63 0.18 0.8 0.4l1.5 1.99c0.66 0.88 1.74 0.88 2.4 0l1.5-1.99c0.19-0.25 0.49-0.4 0.8-0.4h1.5c2.76 0 5-2.23 5-4.98v-6.98c0-2.75-2.24-4.98-5-4.98zm-1.34 12.53c-0.15 0.15-0.34 0.22-0.53 0.22s-0.38-0.07-0.53-0.22l-0.74-0.74c-0.58 0.38-1.28 0.61-2.03 0.61-2.04 0-3.7-1.66-3.7-3.7s1.65-3.7 3.7-3.7 3.7 1.66 3.7 3.7c0 0.75-0.23 1.45-0.61 2.03l0.74 0.74c0.29 0.29 0.29 0.77 0 1.06z"/>
</svg>

<svg width="24" height="24" viewBox="0 0 24 24"  xmlns="http://www.w3.org/2000/svg">
<path d="M17 2H7C4.24 2 2 4.23 2 6.98V12.96V13.96C2 16.71 4.24 18.94 7 18.94H8.5C8.77 18.94 9.13 19.12 9.3 19.34L10.8 21.33C11.46 22.21 12.54 22.21 13.2 21.33L14.7 19.34C14.89 19.09 15.19 18.94 15.5 18.94H17C19.76 18.94 22 16.71 22 13.96V6.98C22 4.23 19.76 2 17 2ZM15.66 14.53C15.51 14.68 15.32 14.75 15.13 14.75C14.94 14.75 14.75 14.68 14.6 14.53L13.86 13.79C13.28 14.17 12.58 14.4 11.83 14.4C9.79 14.4 8.13 12.74 8.13 10.7C8.13 8.66 9.78 7 11.83 7C13.88 7 15.53 8.66 15.53 10.7C15.53 11.45 15.3 12.15 14.92 12.73L15.66 13.47C15.95 13.76 15.95 14.24 15.66 14.53Z" />
</svg>
